public/flags/symbols/ir-emblem.svg

<svg xmlns="http://www.w3.org/2000/svg" xmlns:xlink="http://www.w3.org/1999/xlink" viewBox="269.2812 134.9688 91.4375 90.0625" width="548.62" height="540.38">
<g fill="#da0000" transform="matrix(45,0,0,45,315,180)">
<g id="emblem_half">
<path d="M 1.015679,-0.01556 A 0.77528237,0.7752862 0 0 1 0.60199011,0.67052066 1.0040699,1.0040749 0 0 0 0.44435035,-0.74067818 q -0.0221518,-0.0177005 -0.0452767,-0.0341288 A 0.77575926,0.7757631 0 0 1 1.015679,-0.01556 Z"/>
<path d="m 0.65590144,-0.04683837 a 0.92689013,0.92689472 0 0 1 -1.21301321,0.88105983 q 0.0245198,0.00118 0.0492749,0.001178 a 1.0158759,1.0158809 0 0 0 0.84183925,-1.58419413 0.92423346,0.92423804 0 0 1 0.32189906,0.7019563 z"/>
<path d="M 0.26154437,-0.94393072 A 0.14154065,0.14154135 0 0 1 1.7299476e-6,-0.86887791 L -0.01707249,-0.88602911 1.7299476e-6,-0.96931462 A 0.1321491,0.13214975 0 0 0 0.24983482,-1.0002001 a 0.14021999,0.14022068 0 0 1 0.0117096,0.0562694 z"/>
<path d="M 0.11992727,-0.71445117 A 0.31475286,0.31475442 0 0 1 1.2855032e-6,-0.81025163 L -0.0506876,-0.01642556 1.2855032e-6,1.0001998 0.07882572,0.89166862 0.0891995,0.64144186 0.09996594,0.3809197 l 0.0014156,-0.0334002 4.7111e-4,-0.0124172 0.002279,-0.0541474 0.006758,-0.1640148 0.005501,-0.13242286 0.001571,-0.03827263 0.002042,-0.04872535 V -0.71445117 Z M 1.2855032e-6,-0.54965037 9.0174383e-5,-0.54949481 1.2855032e-6,-0.54933925 Z m 0,0.86447753 V 0.3145916 L 3.946188e-4,0.31468049 Z"/>
</g>
<use xlink:href="#emblem_half" transform="scale(-1,1)"/>
</g>
</svg>

<?xml version="1.0" encoding="UTF-8"?><svg xmlns="http://www.w3.org/2000/svg" xmlns:xlink="http://www.w3.org/1999/xlink" width="500" height="492.4735" viewBox="-1 -0.968 2 1.968"><g id="A"><path d="m 1,6.5298e-4 c 0,0.2832 -0.1568,0.5432 -0.4072,0.6756 0.3408,-0.4264 0.2712,-1.0484 -0.1552,-1.3896 v 0 c -0.0144,-0.0116 -0.0292,-0.0228 -0.0444,-0.0336 0.3536,0.074 0.6068,0.386 0.6068,0.7476 z" /><path d="m 0.6456,-0.03014702 c -4e-4,0.504 -0.4092,0.9124 -0.9132,0.912 -0.0956,0 -0.1904,-0.0152 -0.2812,-0.0444 0.016,8e-4 0.0324,0.0012 0.0484,0.0012 0.5524,0 1,-0.448 1,-1.0004 0,-0.1992 -0.0596,-0.394 -0.1712,-0.5592 0.202,0.1728 0.3176,0.4252 0.3172,0.6908 z" /><path d="m 0.2576,-0.91334702 c 0,0.0768 -0.0624,0.1392 -0.1392,0.1392 -0.048,0 -0.0928,-0.0248 -0.118,-0.0656 l -0.0168,-0.0168 0.0164,-0.082 c 0.03,0.0652 0.1076,0.0936 0.1728,0.0636 0.038,-0.0176 0.0656,-0.0528 0.0732,-0.094 0.0076,0.0176 0.0116,0.0364 0.0116,0.0556 z" /><path d="m 0.118,-0.68774702 c -0.0464,-0.0212 -0.0872,-0.0536 -0.118,-0.094 l -0.05,0.7816 L 0,1.000653 0.0776,0.89385298 l 0.0104,-0.2464 0.0108,-0.2564 0.0012,-0.0328 4e-4,-0.0124 0.0024,-0.0532 0.0068,-0.1616 0.0056,-0.1304 0.0016,-0.0376 0.002,-0.048 z m -0.118,0.1624 z m 0,0.8512 z" /></g><use xlink:href="#A" transform="scale(-1 1)"/></svg>
